!!!COM: Reyes, Jose
!!!CDT: 1835-1905
!!!OTL: National Anthem, Denmark
!!!ENC: Davis, Matthew J.
!!Vocal Line Only
**kern
*clefG2
*k[b-e-a-]
*E-:
*M4/4
=1-
1r
=2
1r
=3
1r
=4
1r
=5
2r
4r
6b-
6cc
6dd
=6
4ee-
8.ee-
16ee-
4ee-
8.g
16a
=7
2b-
8b-
8r
8.a-
16b-
=8
4cc
6ee-
6dd
6cc
4b-
6a-
6g
6f
=9
4e-
4r
4r
6b-
6cc
6dd
=10
4ee-
8.ee-
16ee-
4ee-
8.g
16a
=11
2b-
8b-
8r
8.a-
16b-
=12
4cc
6ee-
6dd
6cc
4b-
6a-
6g
6f
=13
2e-
4r
8.e-
16f
=14
4g
8.g
16g
4g
8.g
16g
=15
2ee-
8cc
8r
8.cc
16ee-
=16
4dd
8.dd
16ff
4bn
8.bn
16dd
=17
4cc
4r
4r
8.f
16f
=18
4f
8.f
16f
4f
8.f
16f
=19
2dd
8b-
8r
8.b-
16dd
=20
4cc
8.cc
16ee-
4an
8.an
16cc
=21
4b-
4r
2r
=22
1r
=23
1r
=24
2r
4r
8.dd
16ee-
=25
4ff
8.ff
16ff
4ff
8.ff
16ee-
=26
2dd
8b-
8r
8.dd
16ee-
=27
4ff
8.ff
16ff
4ff
8.ff
16ee-
=28
4dd
4r
4.ff
16ee-
=29
4dd
8.dd
16cc
4b-
8.b-
16a-
=30
4.g
8a-
4b-
8.b-
16b-
=31
4ee-
8.b-
16b-
4g
8.e-
16e-
=32
2b-
4r
6B-
6c
6d
=33
4e-
8.e-
16e-
8e-
8f
8g
8a-
=34
2b-
8g
8r
8.b-
16b-
=35
4cc
8b-
8b-
4a-
8g
8g
=36
4f
4r
4r
8.B-
16B-
=37
4e-
8.e-
16f
4g
8.g
16a-
=38
2b-
4ee-
8.cc
16a-
=39
4g
8.g
16g
4f
8.b-
16b-
=40
2.e-
==|!
*-
